public/library/bitwyre-text-dark.svg

<svg width="390" height="94" viewBox="0 0 390 94" fill="none" xmlns="http://www.w3.org/2000/svg">
<path d="M0.929688 35.6534C0.929688 37.231 1.5828 38.744 2.74534 39.8595C3.90788 40.975 5.48462 41.6017 7.1287 41.6017H33.6516C36.0166 41.6046 38.355 42.0812 40.5171 43.0009C42.6792 43.9206 44.6175 45.2632 46.2079 46.9428C47.7983 48.6225 49.0058 50.6022 49.7532 52.7553C50.5006 54.9083 50.7714 57.1874 50.5483 59.4467C49.7248 67.8848 41.9849 74.1645 33.1557 74.1645H11.53L11.2201 56.464H33.6693C38.8511 56.4462 43.9134 54.9688 48.2281 52.2152C46.7476 48.6952 43.9356 45.8421 40.3554 44.2275C38.1365 45.2208 35.7193 45.7398 33.2708 45.7486H6.987C6.19238 45.7474 5.40536 45.8968 4.671 46.1881C3.93664 46.4793 3.26939 46.9068 2.70751 47.446C2.14562 47.9851 1.70013 48.6254 1.39658 49.3301C1.09303 50.0347 0.937386 50.7899 0.938552 51.5524C0.938552 60.8318 0.991686 78.0054 0.938552 78.3368C0.938552 79.9144 1.59167 81.4274 2.75421 82.5429C3.91675 83.6585 5.49348 84.2852 7.13756 84.2852H33.6605C37.3705 84.282 41.0418 83.5611 44.455 82.1657C47.8682 80.7704 50.9532 78.7291 53.5257 76.1638C56.0982 73.5986 58.1054 70.5621 59.4273 67.2357C60.7492 63.9094 61.3588 60.3614 61.2195 56.8039C60.6527 42.4855 47.9359 31.3621 32.9874 31.3621H11.53V11.6052H33.6693C43.2424 11.6052 51 19.6439 50.6281 29.3737C50.5572 31.2956 50.147 33.192 49.4148 34.9821C51.1697 36.0841 52.7966 37.3632 54.2678 38.7975C55.4767 39.9842 56.5759 41.2693 57.5532 42.6384C59.9162 38.5244 61.1932 33.9176 61.2726 29.2207C61.5295 13.6701 48.5735 0.949225 33.1468 0.949225H6.97817C6.18429 0.948108 5.39797 1.09718 4.66419 1.38793C3.9304 1.67867 3.26355 2.10538 2.70178 2.64364C2.14001 3.1819 1.69436 3.82115 1.39028 4.52483C1.08621 5.22851 0.929687 5.98281 0.929688 6.74458V35.6534Z" fill="#C4E648"/>
<path d="M97.6454 75.3935V15.4491H122.911C126.665 15.4491 129.911 16.1196 132.646 17.4607C135.382 18.7481 137.474 20.6255 138.923 23.093C140.371 25.5069 141.095 28.3767 141.095 31.7025C141.095 34.5991 140.344 37.2544 138.842 39.6683C137.394 42.0285 135.114 43.9059 132.003 45.3006V41.2775C134.738 42.3503 136.965 43.7182 138.681 45.3811C140.398 46.9903 141.631 48.8141 142.382 50.8525C143.187 52.8909 143.589 55.0366 143.589 57.2895C143.589 62.9219 141.739 67.3473 138.037 70.5658C134.39 73.7843 129.374 75.3935 122.991 75.3935H97.6454ZM107.14 66.945H123.715C126.88 66.945 129.401 66.0867 131.279 64.3702C133.156 62.6 134.095 60.2666 134.095 57.37C134.095 54.4197 133.156 52.0863 131.279 50.3697C129.401 48.5996 126.88 47.7145 123.715 47.7145H107.14V66.945ZM107.14 39.3464H123.152C125.727 39.3464 127.792 38.6223 129.348 37.1739C130.903 35.672 131.681 33.7141 131.681 31.3002C131.681 28.8863 130.903 27.0089 129.348 25.6678C127.792 24.3268 125.727 23.6563 123.152 23.6563H107.14V39.3464Z" fill="white"/>
<path d="M152.471 75.3935V31.8634H161.563V75.3935H152.471ZM152.471 25.9092V15.4491H161.563V25.9092H152.471Z" fill="white"/>
<path d="M191.022 75.8763C186.462 75.8763 182.922 74.5889 180.401 72.0141C177.88 69.4393 176.619 65.8185 176.619 61.1517V40.0706H168.975V31.8634H170.182C172.22 31.8634 173.803 31.2734 174.929 30.0933C176.056 28.9131 176.619 27.3039 176.619 25.2655V21.8861H185.711V31.8634H195.608V40.0706H185.711V60.7494C185.711 62.2513 185.953 63.5387 186.436 64.6116C186.918 65.6308 187.696 66.4354 188.769 67.0254C189.842 67.5619 191.236 67.8301 192.953 67.8301C193.382 67.8301 193.865 67.8032 194.401 67.7496C194.938 67.696 195.447 67.6423 195.93 67.5887V75.3935C195.179 75.5008 194.348 75.6081 193.436 75.7154C192.524 75.8226 191.719 75.8763 191.022 75.8763Z" fill="white"/>
<path d="M215.343 75.3935L200.377 31.8634H210.033L221.459 66.5427H218.079L229.746 31.8634H238.034L249.62 66.5427H246.241L257.747 31.8634H267.403L252.356 75.3935H244.149L232.401 39.9096H235.379L223.631 75.3935H215.343Z" fill="white"/>
<path d="M277.498 93.0952C276.425 93.0952 275.352 92.9879 274.28 92.7734C273.26 92.6124 272.322 92.3442 271.463 91.9688V84.1639C272.107 84.3248 272.885 84.4589 273.797 84.5662C274.709 84.7272 275.594 84.8076 276.452 84.8076C278.973 84.8076 280.824 84.2444 282.004 83.1179C283.238 82.0451 284.337 80.3822 285.303 78.1292L288.2 71.5313L288.039 79.1752L269.21 31.8634H278.946L292.866 68.1519H289.567L303.407 31.8634H313.223L293.993 80.1408C292.974 82.7156 291.686 84.9685 290.131 86.8996C288.629 88.8844 286.832 90.4131 284.74 91.486C282.701 92.5588 280.287 93.0952 277.498 93.0952Z" fill="white"/>
<path d="M319.446 75.3935V31.8634H328.136V40.6338L327.331 39.3464C328.297 36.5034 329.852 34.465 331.998 33.2313C334.144 31.9439 336.719 31.3002 339.722 31.3002H342.378V39.5878H338.596C335.592 39.5878 333.151 40.5265 331.274 42.404C329.45 44.2278 328.538 46.8562 328.538 50.2893V75.3935H319.446Z" fill="white"/>
<path d="M369.035 76.3591C364.69 76.3591 360.828 75.3667 357.449 73.382C354.123 71.3436 351.521 68.6079 349.644 65.1748C347.766 61.6881 346.828 57.7991 346.828 53.5078C346.828 49.1092 347.766 45.2202 349.644 41.8407C351.575 38.4613 354.15 35.8061 357.368 33.875C360.587 31.8902 364.234 30.8979 368.311 30.8979C371.583 30.8979 374.507 31.4611 377.081 32.5876C379.656 33.7141 381.829 35.2697 383.599 37.2544C385.369 39.1855 386.71 41.4116 387.622 43.9328C388.588 46.4539 389.07 49.136 389.07 51.979C389.07 52.6763 389.044 53.4005 388.99 54.1515C388.936 54.9025 388.829 55.5998 388.668 56.2435H353.989V49.0019H383.518L379.173 52.3008C379.71 49.6724 379.522 47.339 378.61 45.3006C377.752 43.2086 376.411 41.5725 374.587 40.3924C372.817 39.1587 370.725 38.5418 368.311 38.5418C365.897 38.5418 363.752 39.1587 361.874 40.3924C359.997 41.5725 358.548 43.2891 357.529 45.542C356.51 47.7413 356.108 50.4234 356.322 53.5882C356.054 56.5385 356.456 59.1133 357.529 61.3126C358.656 63.5119 360.211 65.2285 362.196 66.4622C364.234 67.696 366.541 68.3128 369.116 68.3128C371.744 68.3128 373.97 67.7228 375.794 66.5427C377.671 65.3626 379.147 63.8338 380.219 61.9563L387.622 65.5771C386.764 67.6155 385.423 69.4661 383.599 71.129C381.829 72.7383 379.683 74.0257 377.162 74.9912C374.694 75.9031 371.986 76.3591 369.035 76.3591Z" fill="white"/>
</svg>

<svg xmlns="http://www.w3.org/2000/svg" width="390" height="94" fill="none" viewBox="0 0 390 94"><path fill="#c4e648" d="M.93 35.653c0 1.578.653 3.091 1.815 4.206a6.33 6.33 0 0 0 4.384 1.743h26.523c2.365.003 4.703.48 6.865 1.399a17 17 0 0 1 5.69 3.942 16.2 16.2 0 0 1 3.546 5.812 15.7 15.7 0 0 1 .795 6.692c-.823 8.438-8.563 14.718-17.392 14.718H11.53l-.31-17.701h22.45c5.181-.018 10.243-1.495 14.558-4.249-1.48-3.52-4.292-6.373-7.873-7.988a17.5 17.5 0 0 1-7.084 1.522H6.987a6.3 6.3 0 0 0-2.316.44 6.1 6.1 0 0 0-1.963 1.257 5.8 5.8 0 0 0-1.311 1.884 5.6 5.6 0 0 0-.458 2.222c0 9.28.053 26.453 0 26.785 0 1.577.653 3.09 1.815 4.206a6.33 6.33 0 0 0 4.384 1.742H33.66a28.6 28.6 0 0 0 10.794-2.12 27.7 27.7 0 0 0 9.07-6.001 26.4 26.4 0 0 0 5.902-8.928 25.5 25.5 0 0 0 1.792-10.432c-.566-14.318-13.283-25.442-28.232-25.442H11.53V11.605h22.14c9.572 0 17.33 8.039 16.958 17.769a16.4 16.4 0 0 1-1.213 5.608 29.2 29.2 0 0 1 4.853 3.816 29 29 0 0 1 3.285 3.84 27.87 27.87 0 0 0 3.72-13.417C61.529 13.67 48.573.949 33.147.949H6.978a6.3 6.3 0 0 0-2.314.439c-.734.29-1.4.717-1.962 1.256a5.8 5.8 0 0 0-1.312 1.88 5.6 5.6 0 0 0-.46 2.22z"/><path fill="#fff" d="M97.645 75.394V15.449h25.266q5.632 0 9.735 2.012 4.104 1.931 6.277 5.632 2.172 3.621 2.172 8.61 0 4.344-2.253 7.965-2.172 3.54-6.839 5.633v-4.023q4.103 1.608 6.678 4.103 2.575 2.414 3.701 5.471a17.4 17.4 0 0 1 1.207 6.438q0 8.448-5.552 13.276-5.471 4.828-15.046 4.828zm9.495-8.449h16.575q4.747 0 7.564-2.575 2.816-2.655 2.816-7 0-4.426-2.816-7-2.817-2.655-7.564-2.655H107.14zm0-27.599h16.012q3.862 0 6.196-2.172 2.333-2.253 2.333-5.874t-2.333-5.632q-2.334-2.012-6.196-2.012H107.14zM152.471 75.394v-43.53h9.092v43.53zm0-49.485V15.45h9.092v10.46zM191.022 75.876q-6.84 0-10.621-3.862t-3.782-10.862V40.07h-7.644v-8.208h1.207q3.058 0 4.747-1.77t1.69-4.828v-3.379h9.092v9.977h9.897v8.208h-9.897v20.678q0 2.253.725 3.863.723 1.528 2.333 2.413 1.609.805 4.184.805.644 0 1.448-.08.805-.081 1.529-.161v7.805q-1.126.16-2.494.321-1.368.162-2.414.161M215.343 75.394l-14.966-43.53h9.656l11.426 34.679h-3.38l11.667-34.68h8.288l11.586 34.68h-3.379l11.506-34.68h9.656l-15.047 43.53h-8.207L232.401 39.91h2.978l-11.748 35.484zM277.498 93.095q-1.61 0-3.218-.322a11.5 11.5 0 0 1-2.817-.804v-7.805q.966.24 2.334.402 1.368.242 2.655.242 3.782 0 5.552-1.69 1.85-1.61 3.299-4.989l2.897-6.598-.161 7.644-18.829-47.312h9.736l13.92 36.289h-3.299l13.84-36.289h9.816l-19.23 48.278q-1.529 3.862-3.862 6.759-2.253 2.976-5.391 4.586-3.058 1.61-7.242 1.61M319.446 75.394v-43.53h8.69v8.77l-.805-1.288q1.448-4.264 4.667-6.115 3.22-1.93 7.724-1.93h2.656v8.287h-3.782q-4.506 0-7.322 2.816-2.736 2.736-2.736 7.885v25.105zM369.035 76.36q-6.518 0-11.586-2.978-4.99-3.057-7.805-8.207-2.816-5.23-2.816-11.667 0-6.599 2.816-11.667 2.897-5.07 7.724-7.966 4.828-2.977 10.943-2.977 4.909 0 8.77 1.69 3.863 1.69 6.518 4.666a19.7 19.7 0 0 1 4.023 6.679q1.449 3.78 1.448 8.046 0 1.046-.08 2.172a12 12 0 0 1-.322 2.092h-34.679v-7.241h29.529l-4.345 3.299q.805-3.943-.563-7-1.287-3.138-4.023-4.909-2.655-1.85-6.276-1.85t-6.437 1.85q-2.816 1.77-4.345 5.15-1.528 3.3-1.207 8.046-.402 4.425 1.207 7.725 1.69 3.298 4.667 5.15 3.057 1.85 6.92 1.85 3.942 0 6.678-1.77 2.816-1.77 4.425-4.587l7.403 3.621q-1.287 3.058-4.023 5.552-2.655 2.415-6.437 3.862-3.701 1.368-8.127 1.368"/></svg>
